X:276
T:16th of May. JBut.275, The
T:Sixteenth of May. JBut.275, The
M:6/8
L:1/8
Q:3/8=110
B:John Buttrey MS, poss. Lincolnshire, early 19thC
S:https://buttreymilitarysocialtunes1800.wordpress.com/
Z:Village Music Project, Chris Partington, 2019
K:G
dgd BdB|GGG GAB|cBA BAG|FGA D2(B/c/)|
dgd BdB|GGG GAB|Aed cBA|G3 G,3:|
|:DAc cBA|DBc dcB|DAB cBA|BAB A3|
DAB cBA|Bcd efg|ded cBA|G3G,3:|





